X:1
T:The Green Mossy Banks of the Lea
M:6/8
L:1/8
K:G
G-A| BAG FBF| E D3 B3/2 A/2| GFE B,E^D| E3 G2 A| BA G/2G/2 F/2F/2 BF|\
 E D3 B3/2 A/2| GFE B,EF| E4G-A| BAG FBF| E D3 B3/2- A/2| GFE B,E^D|\
 E3 G2 A| BAG FBF| E D3 B3/2 A/2| GFE B,EF| E6|
